fs/gesture_24_filled.svg

<svg viewBox="0 0 24 24" fill="none" xmlns="http://www.w3.org/2000/svg" height="1em" width="1em">
  <path d="M3 18C3.55228 18 4 18.4477 4 19C4 19.5523 3.55228 20 3 20C2.44772 20 2 19.5523 2 19C2 18.4477 2.44772 18 3 18ZM7 4H17C17.5523 4 18 4.44772 18 5C18 5.51284 17.614 5.93551 17.1166 5.99327L17 6H12.3513L20.3611 9.10191C21.131 9.40004 21.2164 10.432 20.5559 10.8663L20.4455 10.9297L6.44545 17.8953C5.95099 18.1413 5.35071 17.9399 5.10469 17.4455C4.87625 16.9863 5.03359 16.4359 5.45313 16.1627L5.55455 16.1047L17.5257 10.1486L6.63887 5.93252C5.64458 5.54746 5.87334 4.11198 6.88037 4.00617L7 4H17H7ZM20 4C20.5523 4 21 4.44772 21 5C21 5.55228 20.5523 6 20 6C19.4477 6 19 5.55228 19 5C19 4.44772 19.4477 4 20 4Z" fill="#212121"/>
</svg>

<svg viewBox="0 0 24 24" fill="none" xmlns="http://www.w3.org/2000/svg" height="1em" width="1em">
  <path d="M3 18a1 1 0 1 1 0 2 1 1 0 0 1 0-2ZM7 4h10a1 1 0 0 1 .117 1.993L17 6h-4.649l8.01 3.102c.77.298.855 1.33.195 1.764l-.11.064-14 6.965a1 1 0 0 1-.993-1.732l.102-.058 11.97-5.956L6.64 5.933c-.994-.386-.766-1.821.241-1.927L7 4h10H7Zm13 0a1 1 0 1 1 0 2 1 1 0 0 1 0-2Z" fill="#212121"/>
</svg>
